X:10777
T: Milanovo Kolo
O: Croatia
Z: John Chambers <jc@eddie.mit.edu> http://eddie.mit.edu/~jc/music/
N: (1) Both notes may be sharped if you wish.
M: 2/4
L: 1/8
K: D
P: D
|: "D" [f2a] "(1)"[e^g][fa] | "G"[g2b] [fa][eg] | "D"[d2f] "A7"[c2e] | "D"[Ad][ce] [df][eg] \
|  "D" [f2a] [e^g][fa] | "G"[g2b] [fa][eg] | "D"[d2f] "A7"[c2e] | "D"[d3d] z ||
|| "D"[A2A] [A2d] | "A7"[ce][df] [e2g] | [d2f] [c2e] | "D"[Ad][ce] [df][fa] \
|  "D"[A2A] [A2d] | "A7"[ce][df] [e2g] | [d2f] [c2e] | "D"[d3d] z :|
P: G
K: G
|: "G" [B2d] "(1)"[A^c][Bd] | "C"[c2e] [Bd][Ac] | "G"[G2B] "D7"[F2A] | "G"[DG][FA] [GB][Ac] \
|  "G" [B2d] [A^c][Bd] | "C"[c2e] [Bd][Ac] | "G"[G2B] "D7"[F2A] | "G"[G3G] z ||
|| "G"[D2D] [D2G] | "D7"[FA][GB] [A2c] | [G2B] [F2A] | "G"[DG][FA] [GB][Bd] \
|  "G"[D2D] [D2G] | "D7"[FA][GB] [A2c] | [G2B] [F2A] | "G"[G3G] z :|
P: A
K: A
|: "A" [c2e] "(1)"[B^d][ce] | "D"[d2f] [ce][Bd] | "A"[A2c] "E7"[G2B] | "A"[EA][GB] [Ac][Bd] \
|  "A" [c2e] [B^d][ce] | "D"[d2f] [ce][Bd] | "A"[A2c] "E7"[G2B] | "A"[A3A] z ||
|| "A"[E2E] [E2A] | "E7"[GB][Ac] [B2d] | [A2c] [G2B] | "A"[EA][GB] [Ac][ce] \
|  "A"[E2E] [E2A] | "E7"[GB][Ac] [B2d] | [A2c] [G2B] | "A"[A3A] z :|
